X: 2023
T: Minuet round O.
%R: minuet
B: Henry Playford "Apollo's Banquet", London 1687 (5th Edition)
F: https://archive.org/details/apollosbanquetco01rugg
Z: 2017 John Chambers <jc:trillian.mit.edu>
N: Ignored dot on B in bar 5.
M: 3/2
L: 1/8
K: Dm
% - - - - - - - - - -
|:\
f2g2e2 f6 | e3fd2 e4A2 |\
f2g2e2 f6 | e3d^c2 d6 ::\
a2d2a2 a2b4 | a4g2 fgg3(f/g/) |\
a4d2 a2d2a2 |\
a2b4 a4g2 | fgg3(f/g/) a6 |
f2g2e2 f6 | e3fd2 e4A2 |\
f2g2e2 f6 | e3d^c2 d6 |\
A2d2e2 f4g2 | a2b4 g4g2 |\
e2e2f2 d4e2 | ^cdd3(^c/d/) e4A2 |]
% - - - - - - - - - -

%%sep 1 1 500
%%sep 1 1 500

